flaticon/casino-gambling/domino-13.svg

<svg xmlns="http://www.w3.org/2000/svg" width="32" height="32" viewBox="0 0 24 24">
    <path d="M9.125 14.070312C8.667969 14.070312 8.296875 14.441406 8.296875 14.898438 8.296875 15.351562 8.667969 15.722656 9.125 15.722656 9.578125 15.722656 9.953125 15.351562 9.953125 14.898438 9.953125 14.441406 9.578125 14.070312 9.125 14.070312zM14.917969 16.964844C14.460938 16.964844 14.089844 17.339844 14.089844 17.792969 14.089844 18.25 14.460938 18.621094 14.917969 18.621094 15.371094 18.621094 15.746094 18.25 15.746094 17.792969 15.746094 17.339844 15.371094 16.964844 14.917969 16.964844zM9.125 16.964844C8.667969 16.964844 8.296875 17.339844 8.296875 17.792969 8.296875 18.25 8.667969 18.621094 9.125 18.621094 9.578125 18.621094 9.953125 18.25 9.953125 17.792969 9.953125 17.339844 9.578125 16.964844 9.125 16.964844zM9.125 19.863281C8.667969 19.863281 8.296875 20.234375 8.296875 20.691406 8.296875 21.144531 8.667969 21.515625 9.125 21.515625 9.578125 21.515625 9.953125 21.144531 9.953125 20.691406 9.953125 20.234375 9.578125 19.863281 9.125 19.863281zM14.917969 14.070312C14.460938 14.070312 14.089844 14.441406 14.089844 14.898438 14.089844 15.351562 14.460938 15.722656 14.917969 15.722656 15.371094 15.722656 15.746094 15.351562 15.746094 14.898438 15.746094 14.441406 15.371094 14.070312 14.917969 14.070312zM14.917969 19.863281C14.460938 19.863281 14.089844 20.234375 14.089844 20.691406 14.089844 21.144531 14.460938 21.515625 14.917969 21.515625 15.371094 21.515625 15.746094 21.144531 15.746094 20.691406 15.746094 20.234375 15.371094 19.863281 14.917969 19.863281zM9.125 4.136719C9.578125 4.136719 9.953125 3.765625 9.953125 3.308594 9.953125 2.855469 9.578125 2.484375 9.125 2.484375 8.667969 2.484375 8.296875 2.855469 8.296875 3.308594 8.296875 3.765625 8.667969 4.136719 9.125 4.136719zM9.125 9.929688C9.578125 9.929688 9.953125 9.558594 9.953125 9.101562 9.953125 8.648438 9.578125 8.277344 9.125 8.277344 8.667969 8.277344 8.296875 8.648438 8.296875 9.101562 8.296875 9.558594 8.667969 9.929688 9.125 9.929688zM14.917969 4.136719C15.371094 4.136719 15.746094 3.765625 15.746094 3.308594 15.746094 2.855469 15.371094 2.484375 14.917969 2.484375 14.460938 2.484375 14.089844 2.855469 14.089844 3.308594 14.089844 3.765625 14.460938 4.136719 14.917969 4.136719zM14.917969 9.929688C15.371094 9.929688 15.746094 9.558594 15.746094 9.101562 15.746094 8.648438 15.371094 8.277344 14.917969 8.277344 14.460938 8.277344 14.089844 8.648438 14.089844 9.101562 14.089844 9.558594 14.460938 9.929688 14.917969 9.929688zM14.917969 9.929688"/>
    <path d="M 21.785156 20.730469 L 18.226562 11.117188 L 18.226562 0.414062 C 18.226562 0.164062 18.0625 0 17.8125 0 L 6.226562 0 C 5.980469 0 5.8125 0.164062 5.8125 0.414062 L 5.8125 1.339844 L 2.460938 2.691406 C 2.253906 2.773438 2.132812 3.019531 2.214844 3.226562 L 5.8125 12.839844 L 5.8125 23.585938 C 5.8125 23.835938 5.980469 24 6.226562 24 L 17.8125 24 C 18.0625 24 18.226562 23.835938 18.226562 23.585938 L 18.226562 22.601562 L 21.539062 21.269531 C 21.746094 21.1875 21.867188 20.9375 21.785156 20.730469 Z M 6.640625 0.828125 L 17.398438 0.828125 L 17.398438 11.585938 L 6.640625 11.585938 Z M 5.8125 2.234375 L 5.8125 10.511719 L 3.125 3.308594 Z M 17.398438 23.171875 L 6.640625 23.171875 L 6.640625 12.414062 L 17.398438 12.414062 Z M 18.226562 21.765625 L 18.226562 13.488281 L 20.917969 20.691406 Z M 18.226562 21.765625"/>
</svg>

<svg xmlns="http://www.w3.org/2000/svg" width="32" height="32" viewBox="0 0 24 24">
    <path d="M9.125 14.07a.829.829 0 0 0-.828.828.828.828 0 0 0 1.656 0 .831.831 0 0 0-.828-.828zm0 0M14.918 16.965a.829.829 0 1 0 .828.828.834.834 0 0 0-.828-.828zm0 0M9.125 16.965a.829.829 0 1 0 .828.828.834.834 0 0 0-.828-.828zm0 0M9.125 19.863a.829.829 0 0 0-.828.828.828.828 0 0 0 1.656 0 .831.831 0 0 0-.828-.828zm0 0M14.918 14.07a.829.829 0 0 0-.828.828.828.828 0 0 0 1.656 0 .831.831 0 0 0-.828-.828zm0 0M14.918 19.863a.829.829 0 0 0-.828.828.828.828 0 0 0 1.656 0 .831.831 0 0 0-.828-.828zm0 0M9.125 4.137a.831.831 0 0 0 .828-.828.828.828 0 1 0-1.656 0c0 .457.371.828.828.828zm0 0M9.125 9.93a.831.831 0 0 0 .828-.828.828.828 0 1 0-1.656 0c0 .457.371.828.828.828zm0 0M14.918 4.137a.831.831 0 0 0 .828-.828.828.828 0 1 0-1.656 0c0 .457.37.828.828.828zm0 0M14.918 9.93a.831.831 0 0 0 .828-.828.828.828 0 1 0-1.656 0c0 .457.37.828.828.828zm0 0"/>
    <path d="M21.785 20.73l-3.558-9.613V.414c0-.25-.165-.414-.415-.414H6.227c-.247 0-.415.164-.415.414v.926L2.462 2.69c-.207.082-.328.329-.246.536l3.598 9.613v10.746c0 .25.167.414.414.414h11.585c.25 0 .415-.164.415-.414v-.984l3.312-1.332c.207-.082.328-.332.246-.54zM6.641.828h10.757v10.758H6.641zm-.829 1.406v8.278L3.126 3.309zm11.586 20.938H6.641V12.414h10.757zm.829-1.406v-8.278l2.691 7.203zm0 0"/>
</svg>
